X:28
T:Where I Told Her I Loved Her and Sprained Her Ankle
C:Ed Yother
C:c.2006
C:http://edyother.com
M:6/8
R:jig
K:G
GED DEG | (Bc/B)G AGE | GED DEG | A2A AGE |
GED DEG | (B/c/B)G AGE | GED DEF |[1 GG/G/G GFE :|[2 GG/G/G GBc |
|: dB/B/B BGB | FGA BAB | cAA AFA | DEF GF/F/G |
DEF GF/F/G | AGE GAB | cBA DEF |[1 GG/G/G GBc :|[2 GG/G/G GED |]

